public/logos/next.svg

<svg xmlns="http://www.w3.org/2000/svg" width="101" height="30" viewBox="0 0 101 30" fill="none">
<g clip-path="url(#clip0_36_4087)">
<path fill-rule="evenodd" clip-rule="evenodd" d="M23.1631 24.9827L11.6831 5.01758L0.203125 24.9827H23.1631ZM34.7419 24.0739L44.3358 5.92509H40.1861L33.568 19.1054L26.9499 5.92509H22.8001L32.394 24.0739H34.7419ZM100.124 5.92509V24.0739H96.6887V5.92509H100.124ZM81.0009 17.3C81.0009 15.8855 81.2961 14.6415 81.8866 13.5679C82.4771 12.4943 83.3002 11.6679 84.3559 11.0885C85.4116 10.5091 86.6462 10.2194 88.0597 10.2194C89.3123 10.2194 90.4395 10.492 91.4416 11.0373C92.4436 11.5826 93.2398 12.3921 93.8303 13.4657C94.4208 14.5393 94.725 15.8515 94.7429 17.4022V18.1946H84.6243C84.6958 19.3193 85.0268 20.2055 85.6173 20.853C86.2257 21.4836 87.0398 21.7988 88.0597 21.7988C88.7039 21.7988 89.2944 21.6284 89.8312 21.2876C90.368 20.9468 90.7706 20.4867 91.039 19.9073L94.555 20.1629C94.1255 21.441 93.3204 22.4634 92.1394 23.2303C90.9585 23.9971 89.5986 24.3806 88.0597 24.3806C86.6462 24.3806 85.4116 24.0909 84.3559 23.5115C83.3002 22.9321 82.4771 22.1056 81.8866 21.032C81.2961 19.9584 81.0009 18.7144 81.0009 17.3ZM91.2 16.0219C91.0748 14.9142 90.7258 14.1047 90.1533 13.5935C89.5807 13.0652 88.8828 12.8011 88.0597 12.8011C87.1114 12.8011 86.342 13.0823 85.7515 13.6446C85.161 14.207 84.7942 14.9994 84.6511 16.0219H91.2ZM75.2049 13.5935C75.7775 14.0536 76.1354 14.6927 76.2785 15.5106L79.8214 15.3317C79.6961 14.2922 79.3293 13.389 78.7209 12.6222C78.1126 11.8553 77.3253 11.2674 76.359 10.8584C75.4107 10.4324 74.364 10.2194 73.2188 10.2194C71.8052 10.2194 70.5706 10.5091 69.5149 11.0885C68.4592 11.6679 67.6361 12.4943 67.0456 13.5679C66.4551 14.6415 66.1599 15.8855 66.1599 17.3C66.1599 18.7144 66.4551 19.9584 67.0456 21.032C67.6361 22.1056 68.4592 22.9321 69.5149 23.5115C70.5706 24.0909 71.8052 24.3806 73.2188 24.3806C74.3997 24.3806 75.4733 24.1675 76.4396 23.7415C77.4058 23.2984 78.1931 22.6764 78.8015 21.8755C79.4098 21.0746 79.7767 20.1373 79.9019 19.0637L76.3322 18.9103C76.207 19.8135 75.858 20.5122 75.2855 21.0064C74.7129 21.4836 74.024 21.7221 73.2188 21.7221C72.1094 21.7221 71.2505 21.3387 70.6422 20.5719C70.0338 19.805 69.7296 18.7144 69.7296 17.3C69.7296 15.8855 70.0338 14.7949 70.6422 14.0281C71.2505 13.2612 72.1094 12.8778 73.2188 12.8778C73.9882 12.8778 74.6502 13.1164 75.2049 13.5935ZM57.777 10.5255H60.9738L61.0663 13.133C61.2931 12.395 61.6086 11.8218 62.0128 11.4135C62.5989 10.8215 63.4159 10.5255 64.4637 10.5255H65.7691V13.3164H64.4371C63.6912 13.3164 63.0784 13.4179 62.5989 13.6209C62.1371 13.8238 61.7819 14.1452 61.5333 14.585C61.3024 15.0247 61.187 15.5829 61.187 16.2595V24.0739H57.777V10.5255ZM43.0307 13.5679C42.4402 14.6415 42.145 15.8855 42.145 17.3C42.145 18.7144 42.4402 19.9584 43.0307 21.032C43.6211 22.1056 44.4442 22.9321 45.4999 23.5115C46.5556 24.0909 47.7903 24.3806 49.2038 24.3806C50.7426 24.3806 52.1025 23.9971 53.2835 23.2303C54.4644 22.4634 55.2696 21.441 55.6991 20.1629L52.183 19.9073C51.9146 20.4867 51.5121 20.9468 50.9753 21.2876C50.4385 21.6284 49.848 21.7988 49.2038 21.7988C48.1839 21.7988 47.3698 21.4836 46.7614 20.853C46.1709 20.2055 45.8399 19.3193 45.7683 18.1946H55.8869V17.4022C55.869 15.8515 55.5649 14.5393 54.9744 13.4657C54.3839 12.3921 53.5877 11.5826 52.5856 11.0373C51.5836 10.492 50.4564 10.2194 49.2038 10.2194C47.7903 10.2194 46.5556 10.5091 45.4999 11.0885C44.4442 11.6679 43.6211 12.4943 43.0307 13.5679ZM51.2973 13.5935C51.8699 14.1047 52.2188 14.9142 52.3441 16.0219H45.7952C45.9383 14.9994 46.3051 14.207 46.8956 13.6446C47.4861 13.0823 48.2555 12.8011 49.2038 12.8011C50.0269 12.8011 50.7248 13.0652 51.2973 13.5935Z" fill="white"/>
</g>
<defs>
<clipPath id="clip0_36_4087">
<rect width="100.594" height="29" fill="white" transform="translate(0.203125 0.5)"/>
</clipPath>
</defs>
</svg>

<svg xmlns="http://www.w3.org/2000/svg" width="101" height="30" fill="none"><g clip-path="url(#a)"><path fill="#fff" fill-rule="evenodd" d="M23.163 24.983 11.683 5.018.203 24.983zm11.579-.91 9.594-18.148h-4.15l-6.618 13.18-6.618-13.18H22.8l9.594 18.149zm65.382-18.148v18.149h-3.435V5.925zM81.001 17.3q0-2.122.886-3.732a6.14 6.14 0 0 1 2.469-2.48q1.584-.869 3.704-.869 1.878 0 3.382.818 1.503.818 2.388 2.429.886 1.61.913 3.936v.793H84.624q.108 1.686.993 2.658.913.945 2.443.946a3.24 3.24 0 0 0 1.771-.511q.806-.512 1.208-1.38l3.516.255q-.645 1.917-2.416 3.067t-4.08 1.15q-2.12 0-3.703-.868a6.14 6.14 0 0 1-2.47-2.48q-.885-1.611-.885-3.732M91.2 16.022q-.187-1.662-1.047-2.428-.858-.793-2.093-.793-1.423 0-2.309.844-.885.843-1.1 2.377zm-15.995-2.428q.859.69 1.073 1.917l3.543-.18q-.188-1.558-1.1-2.709-.913-1.15-2.362-1.764-1.422-.639-3.14-.639-2.12 0-3.704.87a6.14 6.14 0 0 0-2.47 2.479q-.885 1.611-.885 3.732t.886 3.732a6.14 6.14 0 0 0 2.469 2.48q1.584.869 3.704.869 1.77 0 3.22-.64 1.45-.665 2.363-1.866.912-1.2 1.1-2.811l-3.57-.154q-.188 1.355-1.046 2.096-.86.717-2.067.716-1.664 0-2.577-1.15-.912-1.15-.912-3.272t.912-3.272 2.577-1.15q1.154 0 1.986.716m-17.428-3.068h3.197l.092 2.607q.34-1.107.947-1.72.88-.887 2.45-.888h1.306v2.791h-1.332q-1.12 0-1.838.305a2.22 2.22 0 0 0-1.066.964q-.345.66-.346 1.674v7.815h-3.41zm-14.746 3.042q-.886 1.611-.886 3.732t.886 3.732a6.14 6.14 0 0 0 2.469 2.48q1.583.869 3.704.869 2.308 0 4.08-1.15 1.77-1.152 2.415-3.068l-3.516-.256a3.2 3.2 0 0 1-1.208 1.38 3.24 3.24 0 0 1-1.771.512q-1.53 0-2.443-.946-.885-.972-.993-2.658h10.119v-.793q-.027-2.326-.913-3.936-.885-1.61-2.388-2.429-1.504-.818-3.382-.818-2.12 0-3.704.87a6.14 6.14 0 0 0-2.47 2.479m8.266.026q.86.766 1.047 2.428h-6.549q.215-1.534 1.1-2.377.886-.844 2.309-.844 1.234 0 2.093.793" clip-rule="evenodd"/></g><defs><clipPath id="a"><path fill="#fff" d="M.203.5h100.594v29H.203z"/></clipPath></defs></svg>
